dist/assets/img/questions/9/answers/1_1200.svg

<svg width="506" height="244" viewBox="0 0 506 244" fill="none" xmlns="http://www.w3.org/2000/svg">
<g filter="url(#filter0_di_1419_49371)">
<path fill-rule="evenodd" clip-rule="evenodd" d="M86.5576 28C82.4392 28 78.9937 31.1268 78.5952 35.2259L67.6829 147.467C67.3964 150.413 65.4925 152.926 62.8407 154.241C53.7099 158.768 43.0835 166.493 40.0032 177.116C39.9832 177.185 40.0598 177.241 40.1197 177.201C43.3665 175.052 49.0023 171.322 55.9255 168.616C60.8094 166.707 65.4011 170.936 64.8937 176.155L61.4841 211.226C61.0269 215.928 64.7223 220 69.4465 220H440.704C444.823 220 448.268 216.873 448.667 212.774L465.778 36.7741C466.235 32.0721 462.54 28 457.815 28H86.5576Z" fill="#FFF0CB"/>
</g>
<defs>
<filter id="filter0_di_1419_49371" x="0" y="0" width="505.816" height="272" filterUnits="userSpaceOnUse" color-interpolation-filters="sRGB">
<feFlood flood-opacity="0" result="BackgroundImageFix"/>
<feColorMatrix in="SourceAlpha" type="matrix" values="0 0 0 0 0 0 0 0 0 0 0 0 0 0 0 0 0 0 127 0" result="hardAlpha"/>
<feOffset dy="12"/>
<feGaussianBlur stdDeviation="20"/>
<feComposite in2="hardAlpha" operator="out"/>
<feColorMatrix type="matrix" values="0 0 0 0 1 0 0 0 0 1 0 0 0 0 1 0 0 0 1 0"/>
<feBlend mode="normal" in2="BackgroundImageFix" result="effect1_dropShadow_1419_49371"/>
<feBlend mode="normal" in="SourceGraphic" in2="effect1_dropShadow_1419_49371" result="shape"/>
<feColorMatrix in="SourceAlpha" type="matrix" values="0 0 0 0 0 0 0 0 0 0 0 0 0 0 0 0 0 0 127 0" result="hardAlpha"/>
<feOffset dy="-4"/>
<feGaussianBlur stdDeviation="4"/>
<feComposite in2="hardAlpha" operator="arithmetic" k2="-1" k3="1"/>
<feColorMatrix type="matrix" values="0 0 0 0 0.883659 0 0 0 0 0.635314 0 0 0 0 0.0558422 0 0 0 0.4 0"/>
<feBlend mode="normal" in2="shape" result="effect2_innerShadow_1419_49371"/>
</filter>
</defs>
</svg>

<svg width="506" height="244" viewBox="0 0 506 244" fill="none" xmlns="http://www.w3.org/2000/svg"><g filter="url(#filter0_di_1419_49371)"><path fill-rule="evenodd" clip-rule="evenodd" d="M86.558 28a8 8 0 00-7.963 7.226L67.683 147.467c-.287 2.946-2.19 5.459-4.842 6.774-9.131 4.527-19.758 12.252-22.838 22.875a.077.077 0 00.117.085c3.247-2.149 8.882-5.879 15.806-8.585 4.883-1.909 9.475 2.32 8.968 7.539l-3.41 35.071c-.457 4.702 3.238 8.774 7.962 8.774h371.258a8 8 0 007.963-7.226l17.111-176c.457-4.702-3.238-8.774-7.963-8.774H86.558z" fill="#FFF0CB"/></g><defs><filter id="filter0_di_1419_49371" x="0" y="0" width="505.816" height="272" filterUnits="userSpaceOnUse" color-interpolation-filters="sRGB"><feFlood flood-opacity="0" result="BackgroundImageFix"/><feColorMatrix in="SourceAlpha" values="0 0 0 0 0 0 0 0 0 0 0 0 0 0 0 0 0 0 127 0" result="hardAlpha"/><feOffset dy="12"/><feGaussianBlur stdDeviation="20"/><feComposite in2="hardAlpha" operator="out"/><feColorMatrix values="0 0 0 0 1 0 0 0 0 1 0 0 0 0 1 0 0 0 1 0"/><feBlend in2="BackgroundImageFix" result="effect1_dropShadow_1419_49371"/><feBlend in="SourceGraphic" in2="effect1_dropShadow_1419_49371" result="shape"/><feColorMatrix in="SourceAlpha" values="0 0 0 0 0 0 0 0 0 0 0 0 0 0 0 0 0 0 127 0" result="hardAlpha"/><feOffset dy="-4"/><feGaussianBlur stdDeviation="4"/><feComposite in2="hardAlpha" operator="arithmetic" k2="-1" k3="1"/><feColorMatrix values="0 0 0 0 0.883659 0 0 0 0 0.635314 0 0 0 0 0.0558422 0 0 0 0.4 0"/><feBlend in2="shape" result="effect2_innerShadow_1419_49371"/></filter></defs></svg>
